!!!!SEGMENT: pl-kk--kk-i-382--073_anonim--offertorium-nro-14.krn
!!!cenid: 18xx:1575
!!!COM: Anonim
!!!COM-rismid: pe30004985
!!!CDT:
!!!CNT:
!!!OTL: Offertorium Nro 14
!!!PDT:
!!!AGN: Sacred
!!!SMS-siglum: PL-Kk
!!!SMS-shelfmark: Kk.I.382
!!!SMS-shelfwork: 059 W
!!!SMS-variant:
!!!SMS-altvar:
!!!NIFC-rismid: 1001141178
!!!URL-scan: http://repozytorium.nifc.pl/skany/pl-kk-nut--i-382
!!!ONB-nifc: UWAGA: nr skanu 0046 (S/T1), 0118 (T2), 0191 (A/B1), 0267-8 (B2)
**kern	**text	**dynam	**kern	**text	**kern	**text	**kern	**text
*part4	*part4	*part4	*part3	*part3	*part2	*part2	*part1	*part1
*staff4	*staff4	*	*staff3	*staff3	*staff2	*staff2	*staff1	*staff1
*I"Basso II	*	*	*I"Tenore II	*	*I"Alto vel Basso I	*	*I"Soprano vel Tenore I.	*
*I'B II	*	*	*I'T II	*	*I'A vel B I	*	*I'S vel T I	*
*clefF4	*	*	*clefC4	*	*clefC3	*	*clefC1	*
*k[]	*	*	*k[]	*	*k[]	*	*k[]	*
*C:	*	*	*C:	*	*C:	*	*C:	*
*M2/2	*	*	*M2/2	*	*M2/2	*	*M2/2	*
*met(c|)	*	*	*met(c|)	*	*met(c|)	*	*met(c|)	*
=1	=1	=1	=1	=1	=1	=1	=1	=1
!	!	!	!	!	!LO:TX:a:t=2.	!	!LO:TX:t=P:problem:oznaczenie metryczne C z kropką	!
!	!	!	!LO:TX:a:t=Nro 14.	!	!	!	!LO:TX:a:t=Nro. 14.	!
!LO:TX:a:t=Nro. 14	!	!	!	!	!LO:TX:a:t=Nro 14.	!	!	!
2r	.	.	00r	.	0r	.	2r	.
!LO:SIC:v:l:s=Haec	!	!	!	!	!	!	!LO:SIC:v:l:s=Haec	!
!LO:TX:t=P:problem:all\right:global	!	!	!	!	!	!	!LO:TX:t=P:problem:all\right:global	!
*2\right	*	*	*	*	*	*	*2\right	*
2G\	Hec	.	.	.	.	.	2g\	Hec
=2	=2	=2	=2	=2	=2	=2	=2	=2
1A\	Di-	.	.	.	.	.	1a\	di-
=3	=3	=3	=3	=3	=3	=3	=3	=3
2G\	-es	.	.	.	2r	.	2g\	-es
!	!	!	!	!	!LO:SIC:v:l:s=Haec	!	!	!
!LO:SIC:v:l:s=haec	!	!	!	!	!LO:TX:t=P:problem:all\right:global	!	!	!
*	*	*	*	*	*2\right	*	*	*
2C/	hec	.	.	.	2c\	Hec	2cc\	quam
=4	=4	=4	=4	=4	=4	=4	=4	=4
1D\	Di-	.	.	.	1d\	di-	2cc\	fe-
.	.	.	.	.	.	.	2b\	-cit
=5	=5	=5	=5	=5	=5	=5	=5	=5
2C/	-es	.	00r	.	2c\	-es	2cc\	fe-
2G\	quam	.	.	.	2g\	quam	2b\	-cit
=6	=6	=6	=6	=6	=6	=6	=6	=6
2G\	fe-	.	.	.	2g\	fe-	2.a\	Do-
2F#X\	-cit	.	.	.	2f#X\	-cit	.	.
.	.	.	.	.	.	.	4a\	-mi-
=7	=7	=7	=7	=7	=7	=7	=7	=7
2G\	Do-	.	.	.	2g\	Do-	2g\	-nus
4F#X\	.	.	.	.	4f#X\	.	2dd\	quam
4E\	.	.	.	.	4e\	.	.	.
=8	=8	=8	=8	=8	=8	=8	=8	=8
4D\	.	.	.	.	4d\	.	2dd\	fe-
4E\	.	.	.	.	4e\	.	.	.
4F#X\	.	.	.	.	4f#X\	.	2dd\	-cit
4D\	.	.	.	.	4d\	.	.	.
=9	=9	=9	=9	=9	=9	=9	=9	=9
4E\	.	.	1r	.	4e\	.	2.cc\	Do-
4D\	.	.	.	.	4d\	.	.	.
4E\	.	.	.	.	4e\	.	.	.
4F#X\	.	.	.	.	4f#X\	.	8dd\L	.
.	.	.	.	.	.	.	8cc\J	.
=10	=10	=10	=10	=10	=10	=10	=10	=10
4G\	.	.	2r	.	4g\	.	2.b\	.
!LO:SIC:v:s=4D	!	!	!	!	!	!	!	!
4E\	.	.	.	.	4d\	.	.	.
!	!	!	!LO:SIC:v:l:s=Haec	!	!	!	!	!
[2G\	.	.	2G/	Hec	[2g\	.	.	.
.	.	.	.	.	.	.	8cc\L	.
.	.	.	.	.	.	.	8b\J	.
=11	=11	=11	=11	=11	=11	=11	=11	=11
2G\]	.	.	1A\	di-	2g\]	.	2a\	.
2F#X\	-mi-	.	.	.	2f#X\	-mi-	2a\	-mi-
=12	=12	=12	=12	=12	=12	=12	=12	=12
2G\	-nus,	.	2G/	-es	2g\	-nus,	2b\	-nus
!LO:SIC:v:l:s=haec	!	!	!LO:TX:t=P:problem:all\right:global	!	!	!	!	!
*	*	*	*2\right	*	*	*	*	*
!	!	!LO:DY:b:t=f.	!	!	!	!	!	!
.	.	f	.	.	.	.	.	.
2C/	hec	.	2c\	quam	2g\	quam	2ee\	quam
=13	=13	=13	=13	=13	=13	=13	=13	=13
1D\	di-	.	2c\	fe-	2fn\	fe-	4dd\	fe-
.	.	.	.	.	.	.	4cc\	.
.	.	.	2B\	-cit	2f\	-cit	4dd\	.
.	.	.	.	.	.	.	4b\	.
=14	=14	=14	=14	=14	=14	=14	=14	=14
2C/	-es	.	2c\	Do-	2e\	Do-	2ee\	.
2G\	quam	.	2B\	.	2d\	-mi-	2b\	-cit
=15	=15	=15	=15	=15	=15	=15	=15	=15
2G\	fe-	.	2.A\	.	1c\	-nus.	(2cc\	Do-
2F#X\	-cit	.	.	.	.	.	2a\)	.
.	.	.	4A\	-mi-	.	.	.	.
=16	=16	=16	=16	=16	=16	=16	=16	=16
!	!	!	!	!	!LO:TX:a:t=5.	!	!	!
2G\	Do-	.	2G/	-nus	00r	.	2b\	.
4F#X\	.	.	2d\	quam	.	.	4a\	.
4E\	.	.	.	.	.	.	4g\	.
=17	=17	=17	=17	=17	=17	=17	=17	=17
4D\	.	.	2d\	fe-	.	.	4f#X\	.
4E\	.	.	.	.	.	.	4g\	.
4F#X\	.	.	2d\	-cit	.	.	4a\	.
4D\	.	.	.	.	.	.	4f#\	.
=18	=18	=18	=18	=18	=18	=18	=18	=18
4E\	.	.	2.c\	Do-	.	.	4g\	.
4D\	.	.	.	.	.	.	4f#X\	.
4E\	.	.	.	.	.	.	4g\	.
4F#X\	.	.	4c\	-mi-	.	.	4a\	.
=19	=19	=19	=19	=19	=19	=19	=19	=19
4G\	.	.	2B\	-nus,	.	.	4b\	.
4D\	.	.	.	.	.	.	4a\	.
!	!	!	!LO:SIC:v:l:s=haec	!	!	!	!	!
[2G\	.	.	2G/	hec	.	.	4b\	.
.	.	.	.	.	.	.	4g\	.
=20	=20	=20	=20	=20	=20	=20	=20	=20
2G\]	.	.	1A\	di-	1r	.	2cc\	.
2F#X\	-mi-	.	.	.	.	.	2a\	-mi-
=21	=21	=21	=21	=21	=21	=21	=21	=21
2G\	-nus,	.	2G/	-es	2r	.	2b\	-nus
!LO:TX:t=P:problem:UWAGA! Błędna zmiana klucza na altowy [przyjęto basowy]	!	!	!	!	!	!	!	!
!LO:SIC:v:l:s=haec	!	!	!	!	!LO:SIC:v:l:s=haec	!	!	!
*clefC3	*	*	*	*	*	*	*	*
!LO:CL:ed	!	!	!	!	!	!	!	!
*clefF4	*	*	*	*	*	*	*	*
2C/	hec	.	2c\	quam	2c\	hec	2ee\	quam
=22	=22	=22	=22	=22	=22	=22	=22	=22
1D\	Di-	.	2c\	fe-	1d\	Di-	2ff\	fe-
.	.	.	2B\	-cit	.	.	2dd\	-cit
=23	=23	=23	=23	=23	=23	=23	=23	=23
2C/	-es	.	2c\	Do-	2c\	-es	2ee\	Do-
2G\	quam	.	4B\	.	2g\	quam	4dd\	.
.	.	.	4A\	.	.	.	4cc\	.
=24	=24	=24	=24	=24	=24	=24	=24	=24
2G\	fe-	.	4G\	.	2g\	fe-	4b\	.
.	.	.	4A\	.	.	.	4cc\	.
2G\	-cit	.	4B\	.	2g\	-cit	4dd\	.
.	.	.	4G\	.	.	.	4b\	.
=25	=25	=25	=25	=25	=25	=25	=25	=25
*clefF4	*	*	*	*	*	*	*	*
2.F\	Do-	.	4A\	.	2.f\	Do-	4cc\	.
.	.	.	4G\	.	.	.	4b\	.
.	.	.	4A\	.	.	.	4cc\	.
(8G\L	.	.	4B\	.	8g\L	.	4dd\	.
8F\J)	.	.	.	.	8f\J	.	.	.
=26	=26	=26	=26	=26	=26	=26	=26	=26
2.E\	.	.	4c\	.	2.e\	.	4ee\	.
.	.	.	4G\	.	.	.	4dd\	.
.	.	.	[2c\	.	.	.	4ee\	.
(8F\L	mi-	.	.	.	8f\L	.	4cc\	.
8E\J)	.	.	.	.	8e\J	.	.	.
=27	=27	=27	=27	=27	=27	=27	=27	=27
2D\	-nus.	.	2c\]	.	2d\	.	2ff\	.
2r	.	.	2B\	-mi-	2g\	.	2dd\	-mi-
=28	=28	=28	=28	=28	=28	=28	=28	=28
2r	.	.	2c\	-nus	4g\	.	1ee\	-nus,
.	.	.	.	.	4f\	.	.	.
!LO:SIC:v:l:s=haec	!	!	!	!	!	!	!	!
2C/	hec	.	2e\	quam	4e\	.	.	.
.	.	.	.	.	4c\	.	.	.
=29	=29	=29	=29	=29	=29	=29	=29	=29
!	!	!	!	!	!	!	!LO:TX:b:t=2	!
1D\	di-	.	2f\	fe-	2.f\	.	0r	.
.	.	.	2d\	-cit	.	.	.	.
.	.	.	.	.	8g\L	.	.	.
.	.	.	.	.	8f\J	.	.	.
=30	=30	=30	=30	=30	=30	=30	=30	=30
!	!	!	!	!	!	!	!LO:TX:b:i:t=V&colon; S&colon;	!
2C/	-es	.	2e\	Do-	2e\	.	.	.
2G\	quam	.	2B\	.	2d\	-mi-	.	.
=31	=31	=31	=31	=31	=31	=31	=31	=31
2G\	fe-	.	2c\	.	2c\	-nus,	2r	.
!LO:TX:b:i:t=V&colon; S&colon;	!	!	!	!	!	!	!LO:SIC:v:l:s=haec	!
2G\	-cit	.	2B\	.	2d\	quam	2g\	hec
=32	=32	=32	=32	=32	=32	=32	=32	=32
2.F\	Do-	.	4A\	.	1d\	fe-	1a\	di-
.	.	.	4G\	.	.	.	.	.
.	.	.	4A\	.	.	.	.	.
8G\L	.	.	4B\	.	.	.	.	.
8F\J	.	.	.	.	.	.	.	.
=33	=33	=33	=33	=33	=33	=33	=33	=33
2.E\	.	.	2.c\	.	2e\	-cit	2g\	-es
.	.	.	.	.	2e\	quam	2cc\	quam
8F\L	.	.	4c\	-mi-	.	.	.	.
8E\J	.	.	.	.	.	.	.	.
=34	=34	=34	=34	=34	=34	=34	=34	=34
2.D\	.	.	2d\	-nus	1f\	fe-	2cc\	fe-
.	.	.	2d\	quam	.	.	2b\	-cit
4D\	-mi-	.	.	.	.	.	.	.
=35	=35	=35	=35	=35	=35	=35	=35	=35
2C/	-nus	.	2e\	fe-	2e\	-cit	2cc\	Do-
2G\	quam	.	2d\	-cit	2g\	quam	4b\	.
.	.	.	.	.	.	.	4a\	.
=36	=36	=36	=36	=36	=36	=36	=36	=36
2c\	fe-	.	2e\	Do-	2g\	fe-	4g\	.
.	.	.	.	.	.	.	4a\	.
!	!	!	!	!	!LO:TX:b:t=V&colon; S&colon;	!	!	!
2B\	-cit	.	2d\	.	2g\	-cit	4b\	.
.	.	.	.	.	.	.	4g\	.
=37	=37	=37	=37	=37	=37	=37	=37	=37
2.A\	Do-	.	2.c\	.	2e\	Do-	4a\	.
.	.	.	.	.	.	.	4g\	.
.	.	.	.	.	4f\	.	4a\	.
4G\	.	.	4B\	.	4g\	.	4b\	.
=38	=38	=38	=38	=38	=38	=38	=38	=38
4F\	.	.	2A\	.	4a\	.	4cc\	.
4E\	.	.	.	.	4g\	.	4g\	.
4F\	.	.	2c\	.	4a\	.	[2cc\	.
4D\	.	.	.	.	4f\	.	.	.
=39	=39	=39	=39	=39	=39	=39	=39	=39
2.G\	.	.	2.d\	.	2.g\	.	2cc\]	.
.	.	.	.	.	.	.	2b\	-mi-
4G\	-mi-	.	4d\	-mi-	4f\	-mi-	.	.
=40	=40	=40	=40	=40	=40	=40	=40	=40
2C/	-nus	.	2c\	-nus	2e\	-nus	2cc\	-nus
2G\	quam	.	2B\	quam	2g\	quam	2dd\	quam
=41	=41	=41	=41	=41	=41	=41	=41	=41
2E\	fe-	.	2c\	fe-	2e\	fe-	2cc\	fe-
2G\	-cit	.	2G/	-cit	2g\	-cit	2b\	-cit
=42	=42	=42	=42	=42	=42	=42	=42	=42
2.G\	Do-	.	2.d\	Do-	2.g\	Do-	2.a\	Do-
4F#X\	-mi-	.	4d\	-mi-	4f#X\	-mi-	4a\	-mi-
=43	=43	=43	=43	=43	=43	=43	=43	=43
2G\	-nus	.	2G/	-nus	2g\	-nus	2b\	-nus
2E\	quam	.	2c\	quam	2g\	quam	2gg\	quam
=44	=44	=44	=44	=44	=44	=44	=44	=44
2F\	fe-	.	2A\	fe-	2a\	fe-	2ff\	fe-
2C/	-cit	.	2c\	-cit	2g\	-cit	2ee\	-cit
=45	=45	=45	=45	=45	=45	=45	=45	=45
[1G\	Do-	.	2B\	Do-	[1g\	Do-	2dd\	fe-
.	.	.	[2c\	.	.	.	2ee\	-cit
=46	=46	=46	=46	=46	=46	=46	=46	=46
2G\]	.	.	2c\]	.	2g\]	.	2.dd\	Do-
2GG/	-mi-	.	2B\	-mi-	2g\	-mi-	.	.
.	.	.	.	.	.	.	4dd\	-mi-
=47	=47	=47	=47	=47	=47	=47	=47	=47
!	!	!	!LO:TX:b:i:t=V&colon; S&colon;	!	!	!	!	!
!LO:N:vis=0	!	!	!LO:N:vis=0	!	!LO:N:vis=0	!	!	!
1C/	-nus.	.	1c\	-nus.	1e\	-nus.	1cc\	-nus.
=48|!	=48|!	=48|!	=48|!	=48|!	=48|!	=48|!	=48|!	=48|!
*M3/4	*	*	*M3/4	*	*M3/4	*	*M3/4	*
4r	.	.	2d\	E-	2g\	E-	2b\	e-
!LO:N:vis=2	!	!	!	!	!	!	!	!
4G\	E-	.	.	.	.	.	.	.
4D\	-xul-	.	4d\	-xul-	4f#X\	-xul-	4a\	-xul-
=49	=49	=49	=49	=49	=49	=49	=49	=49
2G\	-te-	.	2d\	-te-	2g\	-te-	2b\	-te-
4G\	-mus	.	4d\	-mus	4g\	-mus	4b\	-mus
=50	=50	=50	=50	=50	=50	=50	=50	=50
4r	.	.	2e\	e-	2g\	e-	2cc\	e-
!LO:N:vis=2	!	!	!	!	!	!	!	!
4c\	e-	.	.	.	.	.	.	.
4G\	-xul-	.	4d\	-xul-	4g\	-xul-	4b\	-xul-
=51	=51	=51	=51	=51	=51	=51	=51	=51
2c\	-te-	.	2e\	-te-	2g\	-te-	2cc\	-te-
4C/	-mus	.	4e\	-mus	4g\	-mus	4cc\	-mus
=52	=52	=52	=52	=52	=52	=52	=52	=52
2G\	et	.	2B\	et	2g\	et	2dd\	et
!LO:SIC:v:l:s=lae-	!	!	!LO:SIC:v:l:s=lae-	!	!LO:SIC:v:l:s=lae-	!	!LO:SIC:v:l:s=lae-	!
4G\	le-	.	4B\	le-	4g\	le-	4dd\	le-
=53	=53	=53	=53	=53	=53	=53	=53	=53
4E\	-te-	.	4c\	-te-	4e\	-te-	4cc\	-te-
8G\	-mur	.	8G/	-mur	8g\	-mur	8b\	-mur
8G\	in	.	8G/	in	8g\	in	8b\	in
4F#X\	e-	.	4d\	e-	4f#X\	e-	4a\	e-
=54	=54	=54	=54	=54	=54	=54	=54	=54
4G\	-a	.	4G/	-a	4g\	-a	4b\	-a
4G\	e-	.	4d\	e-	4g\	e-	4b\	e-
4D\	-xul-	.	4d\	-xul-	4f#X\	-xul-	4a\	-xul-
=55	=55	=55	=55	=55	=55	=55	=55	=55
2G\	-te-	.	2d\	-te-	2g\	-te-	2b\	-te-
4G\	-mus	.	4d\	-mus	4g\	-mus	4b\	-mus
=56	=56	=56	=56	=56	=56	=56	=56	=56
4r	.	.	4r	.	4r	.	4r	.
4F#X\	et	.	4d\	et	4d\	et	4a\	et
!LO:SIC:v:l:s=lae-	!	!	!LO:SIC:v:l:s=lae-	!	!LO:SIC:v:l:s=lae-	!	!LO:SIC:v:l:s=lae-	!
4F#\	le-	.	4d\	le-	4d\	le-	4a\	le-
=57	=57	=57	=57	=57	=57	=57	=57	=57
4G\	-te-	.	4d\	-te-	4g\	-te-	4b\	-te-
8D\	-mur	.	8d\	-mur	8f#X\	-mur	8a\	-mur
8D\	in	.	8d\	in	8f#\	in	8a\	in
4A\	e-	.	4c#X\	e-	4e\	e-	4a\	e-
=58	=58	=58	=58	=58	=58	=58	=58	=58
2D\	-a,	.	2d\	-a	2f#X\	-a	2.a\	-a,
!LO:SIC:v:l:s=lae-	!	!	!LO:SIC:v:l:s=lae-	!	!LO:SIC:v:l:s=lae-	!	!	!
4D\	le-	.	4d\	le-	4f#\	le-	.	.
=59	=59	=59	=59	=59	=59	=59	=59	=59
4G\	-te-	.	8d\L	-te-	4g\	-te-	4r	.
.	.	.	8c\	.	.	.	.	.
4G\	-mur,	.	8d\	.	4g\	-mur	4r	.
.	.	.	8e\	.	.	.	.	.
!LO:SIC:v:l:s=lae-	!	!	!	!	!LO:SIC:v:l:s=lae-	!	!LO:SIC:v:l:s=lae-	!
4F#X\	le-	.	8d\	.	4d\	le-	4dd\	le-
.	.	.	8c\J	.	.	.	.	.
=60	=60	=60	=60	=60	=60	=60	=60	=60
4G\	-te-	.	8B\L	.	4g\	-te-	8dd\L	-te-
.	.	.	8A\	.	.	.	8cc\	.
4G\	-mur	.	8B\	.	4g\	-mur	8dd\	.
.	.	.	8c\	.	.	.	8ee\	.
!LO:SIC:v:l:s=lae-	!	!	!	!	!LO:SIC:v:l:s=lae-	!	!	!
4G\	le-	.	8B\	.	4G/	le-	8dd\	.
.	.	.	(8A\J	.	.	.	8cc\J	.
=61	=61	=61	=61	=61	=61	=61	=61	=61
4GG/	-te-	.	4G/)	.	4B/	-te-	8b\L	.
.	.	.	.	.	.	.	8a\	.
4GG/	-mur,	.	4G/	-mur	4B/	-mur	8b\	.
.	.	.	.	.	.	.	8cc\	.
!LO:SIC:v:l:s=lae-	!	!	!LO:SIC:v:l:s=lae-	!	!LO:SIC:v:l:s=lae-	!	!	!
4G\	le-	.	4G/	le-	4B/	le-	8b\	.
.	.	.	.	.	.	.	(8a\J	.
=62	=62	=62	=62	=62	=62	=62	=62	=62
8G\L	-te-	.	4B\	-te-	4d\	-te-	4g\)	.
8F\	.	.	.	.	.	.	.	.
8G\	.	.	4G\	-mur	4d\	-mur	4g\	-mur
8A\	.	.	.	.	.	.	.	.
!	!	!	!LO:SIC:v:l:s=lae-	!	!LO:SIC:v:l:s=lae-	!	!LO:SIC:v:l:s=lae-	!
8G\	.	.	4B\	le-	4g\	le-	4g\	le-
8F\J	.	.	.	.	.	.	.	.
=63	=63	=63	=63	=63	=63	=63	=63	=63
8E\L	.	.	4c\	-te-	8g\L	-te-	4cc\	-te-
8D\	.	.	.	.	8f\	.	.	.
8E\	.	.	4c\	-mur	8g\	.	4cc\	-mur
8F\	.	.	.	.	8a\	.	.	.
!	!	!	!LO:SIC:v:l:s=lae-	!	!	!	!LO:SIC:v:l:s=lae-	!
8E\	.	.	4g\	le-	8g\	.	4cc\	le-
8D\J	.	.	.	.	8f\J	.	.	.
=64	=64	=64	=64	=64	=64	=64	=64	=64
4C/	.	.	8g\L	-te-	8e\L	.	4ee\	-te-
.	.	.	8f\	.	8d\	.	.	.
4C/	-mur,	.	8g\	.	8e\	.	4ee\	-mur
.	.	.	8a\	.	8f\	.	.	.
!LO:SIC:v:l:s=lae-	!	!	!	!	!	!	!LO:SIC:v:l:s=lae-	!
4C/	le-	.	8g\	.	8e\	.	4ee\	le-
.	.	.	8f\J	.	8d\J	.	.	.
=65	=65	=65	=65	=65	=65	=65	=65	=65
4C/	-te-	.	8e\L	.	4c\	.	4gg\	-te-
.	.	.	8d\	.	.	.	.	.
4C/	-mur,	.	8e\	.	4c\	-mur	4gg\	-mur
.	.	.	8f\	.	.	.	.	.
!LO:SIC:v:l:s=lae-	!	!	!	!	!LO:SIC:v:l:s=lae-	!	!LO:SIC:v:l:s=lae-	!
4c\	le-	.	8e\	.	4c\	le-	4gg\	le-
.	.	.	(8d\J	.	.	.	.	.
=66	=66	=66	=66	=66	=66	=66	=66	=66
4c\	-te-	.	4c\)	.	4e\	-te-	8gg\L	-te-
.	.	.	.	.	.	.	8ff\	.
4c\	-mur,	.	4c\	-mur	4e\	-mur	8gg\	.
.	.	.	.	.	.	.	8aa\	.
!LO:SIC:v:l:s=lae-	!	!	!LO:SIC:v:l:s=lae-	!	!LO:SIC:v:l:s=lae-	!	!	!
4c\	le-	.	4c\	le-	4e\	le-	8gg\	.
.	.	.	.	.	.	.	8ff\J	.
=67	=67	=67	=67	=67	=67	=67	=67	=67
8c\L	-te-	.	4e\	-te-	4g\	-te-	8ee\L	.
8B-X\	.	.	.	.	.	.	8dd\	.
8c\	.	.	4e\	-mur	4g\	-mur	8ee\	.
8d\	.	.	.	.	.	.	8ff\	.
!	!	!	!LO:SIC:v:l:s=lae-	!	!LO:SIC:v:l:s=lae-	!	!	!
8c\	.	.	4e\	le-	4cc\	le-	8ee\	.
!	!	!	!	!	!	!	!LO:TX:t=P:problem:brak początku łuku	!
8B-\J	.	.	.	.	.	.	(8dd\J	.
=68	=68	=68	=68	=68	=68	=68	=68	=68
8A\L	.	.	4f\	-te-	8cc\L	-te-	4cc\)	.
8G\	.	.	.	.	8b-X\	.	.	.
8A\	.	.	4f\	-mur	8cc\	.	4cc\	-mur
8B-X\	.	.	.	.	8dd\	.	.	.
!	!	!	!LO:SIC:v:l:s=lae-	!	!	!	!LO:SIC:v:l:s=lae-	!
8A\	.	.	4c\	le-	8cc\	.	4cc\	le-
(8G\J	.	.	.	.	8b-X\J	.	.	.
=69	=69	=69	=69	=69	=69	=69	=69	=69
4F\)	.	.	8c\L	-te-	8a\L	.	4ff\	-te-
.	.	.	8B-X\	.	8g\	.	.	.
4F\	-mur,	.	8c\	.	8a\	.	4ff\	-mur
.	.	.	8d\	.	8b-X\	.	.	.
!LO:SIC:v:l:s=lae-	!	!	!	!	!	!	!LO:SIC:v:l:s=lae-	!
4F\	le-	.	8c\	.	8a\	.	4f/	le-
.	.	.	8B-\J	.	8g\J	.	.	.
=70	=70	=70	=70	=70	=70	=70	=70	=70
4F\	-te-	.	8A/L	.	8f\L	.	4a\	-te-
.	.	.	8G/	.	8e\	.	.	.
4FF/	-mur	.	8A/	.	8f\	.	4a\	-mur
.	.	.	8B-X/	.	8g\	.	.	.
!LO:SIC:v:l:s=lae-	!	!	!	!	!	!	!LO:SIC:v:l:s=lae-	!
4F\	le-	.	8A/	.	8f\	.	4a\	le-
.	.	.	(8G/J	.	8e\J	.	.	.
=71	=71	=71	=71	=71	=71	=71	=71	=71
4F\	-te-	.	4F/)	.	4f\	.	4cc\	-te-
4F\	-mur	.	4F/	-mur	4f\	-mur	4cc\	-mur
!LO:SIC:v:l:s=lae-	!	!	!LO:SIC:v:l:s=lae-	!	!LO:SIC:v:l:s=lae-	!	!LO:SIC:v:l:s=lae-	!
4E\	le-	.	4c\	le-	4g\	le-	4cc\	le-
=72	=72	=72	=72	=72	=72	=72	=72	=72
4F\	-te-	.	4c\	-te-	4f\	-te-	4a\	-te-
8C/	-mur	.	8c\	-mur	8e\	-mur	8g\	-mur
8C/	in	.	8c\	in	8e\	in	8g\	in
4G\	e-	.	4Bn\	e-	4d\	e-	4g\	e-
=73	=73	=73	=73	=73	=73	=73	=73	=73
2C/	-a	.	2c\	-a;	2e\	-a	2g\	-a
!LO:SIC:v:l:s=lae-	!	!	!LO:SIC:v:l:s=lae-	!	!LO:SIC:v:l:s=lae-	!	!LO:SIC:v:l:s=lae-	!
4E\	le-	.	4c\	le-	4g\	le-	4cc\	le-
=74	=74	=74	=74	=74	=74	=74	=74	=74
4F\	-te-	.	4f\	-te-	4a\	-te-	4cc\	-te-
4F\	-mur,	.	4f\	-mur	4a\	-mur	4cc\	-mur
!LO:SIC:v:l:s=lae-	!	!	!LO:SIC:v:l:s=lae-	!	!LO:SIC:v:l:s=lae-	!	!LO:SIC:v:l:s=lae-	!
4E\	le-	.	4c\	le-	4g\	le-	4cc\	le-
=75	=75	=75	=75	=75	=75	=75	=75	=75
4F\	-te-	.	4f\	-te-	4a\	-te-	4cc\	-te-
8C/	-mur	.	8e\	-mur	8g\	-mur	8cc\	-mur
8C/	in	.	8e\	in	8g\	in	8cc\	in
4G\	e-	.	4d\	e-	4g\	e-	4b\	e-
=76|!	=76|!	=76|!	=76|!	=76|!	=76|!	=76|!	=76|!	=76|!
*M4/4	*	*	*M4/4	*	*M4/4	*	*M4/4	*
*met(c)	*	*	*met(c)	*	*met(c)	*	*met(c)	*
!LO:TX:t=P:problem:oznaczenie metryczne C z kropką	!	!	!LO:TX:t=P:problem:oznaczenie metryczne C z kropką	!	!LO:TX:t=P:problem:oznaczenie metryczne C z kropką	!	!LO:TX:t=P:problem:oznaczenie metryczne C z kropką	!
2C/	-a	.	2c\	-a	2e\	-a	2cc\	-a
2C/	in	.	2c\	in	2e\	in	2g\	in
=77	=77	=77	=77	=77	=77	=77	=77	=77
1F\	e-	.	1c\	e-	1f\	e-	1a\	e-
=78	=78	=78	=78	=78	=78	=78	=78	=78
!LO:N:vis=0	!	!	!LO:N:vis=0	!	!LO:N:vis=0	!	!	!
1C/	-a.	.	1c\	-a.	1e\	-a.	1g\	-a.
==	==	==	==	==	==	==	==	==
*-	*-	*-	*-	*-	*-	*-	*-	*-
!!!system-decoration: [(s1,s2,s3,s4)]
!!!EED: Andrzej Borzym
!!!EST: 2021-02-16
!!!ENC: Andrzej Kubiczek
!!!END: 2021-01-31
